X: 10
P: No. X.
M: 3/4
L: 1/8
K: G
V: 1
|:\
(EDEG)A2 | T{B}A3AB2 | D2E2TF2 | G6 :|\
|:\
(TcB)(cd)(cd) | c2E2E2 |
(TBA)(Bc)(Bc) | B2D2D2 |\
{f}edcB AF | TG3AB2 | D2E2F2 | G4z2 :|
V: 2 clef=bass middle=d
|:\
g2c'2a2 | b2a2g2 | B2c2d2 | G2A2B2 |\
c6 | c'ba2g2 | B2c2d2 | g2d2G2 :|\
|:\
g6 | gababg |\
a4A2 | g4G2 | c2A2c2 | d6 |\
c2e2c2 | B2A2G2 | B2c2d2 | G4z2 :|

